web/img/icons/metraz1.svg

<svg xmlns="http://www.w3.org/2000/svg" xmlns:xlink="http://www.w3.org/1999/xlink" width="24" height="24" viewBox="0 0 24 24"><defs><style>.cls-1{fill:#c2c2c2;fill-rule:evenodd;filter:url(#filter)}</style><filter id="filter" x="0" y="0" width="24" height="24" filterUnits="userSpaceOnUse"><feImage preserveAspectRatio="none" width="24" height="24" result="image" xlink:href="data:image/svg+xml;base64,PHN2ZyB4bWxucz0iaHR0cDovL3d3dy53My5vcmcvMjAwMC9zdmciIHhtbG5zOnhsaW5rPSJodHRwOi8vd3d3LnczLm9yZy8xOTk5L3hsaW5rIiB3aWR0aD0iMjQiIGhlaWdodD0iMjQiIHZpZXdCb3g9IjAgMCAyNCAyNCI+CiAgPGRlZnM+CiAgICA8c3R5bGU+CiAgICAgIC5jbHMtMSB7CiAgICAgICAgZmlsbDogdXJsKCNsaW5lYXItZ3JhZGllbnQpOwogICAgICB9CiAgICA8L3N0eWxlPgogICAgPGxpbmVhckdyYWRpZW50IGlkPSJsaW5lYXItZ3JhZGllbnQiIHkxPSIyMS4zNzUiIHgyPSIyNCIgeTI9IjIuNjI1IiBncmFkaWVudFVuaXRzPSJ1c2VyU3BhY2VPblVzZSI+CiAgICAgIDxzdG9wIG9mZnNldD0iLTAuMjUiIHN0b3AtY29sb3I9IiNkNzgwMzQiLz4KICAgICAgPHN0b3Agb2Zmc2V0PSIxLjI1IiBzdG9wLWNvbG9yPSIjZmNiNzc0Ii8+CiAgICA8L2xpbmVhckdyYWRpZW50PgogIDwvZGVmcz4KICA8cmVjdCBjbGFzcz0iY2xzLTEiIHdpZHRoPSIyNCIgaGVpZ2h0PSIyNCIvPgo8L3N2Zz4K"/><feComposite result="composite" operator="in" in2="SourceGraphic"/><feBlend result="blend" in2="SourceGraphic"/></filter></defs><path id="ikona_-_metraż1" data-name="ikona - metraż1" class="cls-1" d="M2 16H0V0h2v16zm14 0h-1V0h1v16zM0 1V0h16v1H0zm0 15v-1h9v1H0zm9 8H8V8h1v16zm15 0h-2V8h2v16zM15 9V8h9v1h-9zM8 24v-1h16v1H8z"/></svg>

<svg xmlns="http://www.w3.org/2000/svg" xmlns:xlink="http://www.w3.org/1999/xlink" width="24" height="24" viewBox="0 0 24 24">
  <metadata><?xpacket begin="﻿" id="W5M0MpCehiHzreSzNTczkc9d"?>
<x:xmpmeta xmlns:x="adobe:ns:meta/" x:xmptk="Adobe XMP Core 5.6-c138 79.159824, 2016/09/14-01:09:01        ">
   <rdf:RDF xmlns:rdf="http://www.w3.org/1999/02/22-rdf-syntax-ns#">
      <rdf:Description rdf:about=""/>
   </rdf:RDF>
</x:xmpmeta>
                                                                                                    
                                                                                                    
                                                                                                    
                                                                                                    
                                                                                                    
                                                                                                    
                                                                                                    
                                                                                                    
                                                                                                    
                                                                                                    
                                                                                                    
                                                                                                    
                                                                                                    
                                                                                                    
                                                                                                    
                                                                                                    
                                                                                                    
                                                                                                    
                                                                                                    
                                                                                                    
                           
<?xpacket end="w"?></metadata>
<defs>
    <style>
      .cls-1 {
        fill: #c2c2c2;
        fill-rule: evenodd;
        filter: url(#filter);
      }
    </style>
    <filter id="filter" x="0" y="0" width="24" height="24" filterUnits="userSpaceOnUse">
      <feImage preserveAspectRatio="none" x="0" y="0" width="24" height="24" result="image" xlink:href="data:image/svg+xml;base64,PHN2ZyB4bWxucz0iaHR0cDovL3d3dy53My5vcmcvMjAwMC9zdmciIHhtbG5zOnhsaW5rPSJodHRwOi8vd3d3LnczLm9yZy8xOTk5L3hsaW5rIiB3aWR0aD0iMjQiIGhlaWdodD0iMjQiIHZpZXdCb3g9IjAgMCAyNCAyNCI+CiAgPGRlZnM+CiAgICA8c3R5bGU+CiAgICAgIC5jbHMtMSB7CiAgICAgICAgZmlsbDogdXJsKCNsaW5lYXItZ3JhZGllbnQpOwogICAgICB9CiAgICA8L3N0eWxlPgogICAgPGxpbmVhckdyYWRpZW50IGlkPSJsaW5lYXItZ3JhZGllbnQiIHkxPSIyMS4zNzUiIHgyPSIyNCIgeTI9IjIuNjI1IiBncmFkaWVudFVuaXRzPSJ1c2VyU3BhY2VPblVzZSI+CiAgICAgIDxzdG9wIG9mZnNldD0iLTAuMjUiIHN0b3AtY29sb3I9IiNkNzgwMzQiLz4KICAgICAgPHN0b3Agb2Zmc2V0PSIxLjI1IiBzdG9wLWNvbG9yPSIjZmNiNzc0Ii8+CiAgICA8L2xpbmVhckdyYWRpZW50PgogIDwvZGVmcz4KICA8cmVjdCBjbGFzcz0iY2xzLTEiIHdpZHRoPSIyNCIgaGVpZ2h0PSIyNCIvPgo8L3N2Zz4K"/>
      <feComposite result="composite" operator="in" in2="SourceGraphic"/>
      <feBlend result="blend" in2="SourceGraphic"/>
    </filter>
  </defs>
  <path id="ikona_-_metraż1" data-name="ikona - metraż1" class="cls-1" d="M2,16H0V0H2V16Zm14,0H15V0h1V16ZM0,1V0H16V1H0ZM0,16V15H9v1H0Zm9,8H8V8H9V24Zm15,0H22V8h2V24ZM15,9V8h9V9H15ZM8,24V23H24v1H8Z"/>
</svg>
